public/avatar/hat/175.svg

<svg xmlns:xlink="http://www.w3.org/1999/xlink" height="92.9" width="100.7" xmlns="http://www.w3.org/2000/svg"><use height="31.75" transform="translate(20.25 41.9)" width="35.85" xlink:href="#a"/><defs><g id="a" fill-rule="evenodd"><path d="M-9.5-6.25q2.4-1.4 9-1.6Q6.45-8 9.15-6.3q4.3 3.85 4.9 9.05l-.1.4q-.15.2-.4.2l-27.8-.15-.4-.15-.1-.45q.8-5.95 5.25-8.85" fill="#440202" transform="translate(18.4 7.85)"/><path d="M-8.85-5.4q2.2-1.3 8.35-1.45 6.45-.2 9 1.35 3.95 3.65 4.55 8.75l-26.8-.55q.75-5.3 4.9-8.1" fill="#d80000" transform="translate(18.4 7.85)"/><path d="M6.05-1.15q3.3-2.9.3-5.15l2.15.8q3.95 3.65 4.55 8.75-4 .2-14-.1 5.5-3 7-4.3" fill="#8c1414" transform="translate(18.4 7.85)"/><path d="M5.75-4.65 7.1-3q1.35 2 1.6 4.05l.05.55-.55.05-16.55-.35h-.6l.1-.6q.45-3.55 3.3-5.35 1.5-.9 5.4-1 4.15-.1 5.9 1" fill="#440202" transform="translate(18.4 7.85)"/><path d="m5.1-3.8 1.15 1.45Q7.45-.55 7.7 1.4L-7.85 1q.5-3.25 2.85-4.75 1.35-.8 4.85-.9Q3.5-4.8 5.1-3.8" fill="#fff" transform="translate(18.4 7.85)"/><path d="m.7-4.65 1.85.1Q.8-3.95-.2-2.05-1.1.25-1.85 1.3l-1.9-.1Q-2.1-.6.7-4.65m4.4.85.1.1q-.65.85-.95 2.5L3.7 1.45l-3.6-.1Q.4.15 1.6-1.5l1.9-2.9 1.6.6" fill="#ccc" transform="translate(18.4 7.85)"/><path d="M14.5 6.75q.5.1.65.5.3.95-.1 2.95-.35 1.85-.85 2.6l-.65.4H11.1q-.35 0-.45-.25L8.6 9h-18.8l-1.15 4.05q-.15.35-.55.35h-2.95l-.5-.35-.6-2.25q-.4-2.2.4-3.3l.15-.15q2.3-1.7 15.05-1.65 11.8.1 14.85 1.05" fill="#440202" transform="translate(18.4 7.85)"/><path d="M.95 6.1q12.8.4 13.15 1.3.75 2.2-.8 4.75h-1.9L9.15 8.1H-11.1l-1.2 4.25h-2.15l-.45-1.9q-.35-2.15.35-3.1Q-12.2 5.65.95 6.1" fill="#d80000" transform="translate(18.4 7.85)"/><path d="M14.1 7.4q.75 2.2-.8 4.75h-1.9L9.15 8.1H-11.1l-1.2 4.25h-1.05l.25-2.85-.05-.05-1.75 1.05q-.3-2.2.35-3.15Q-12.2 5.65.95 6.1q12.8.4 13.15 1.3" fill="#8c1414" transform="translate(18.4 7.85)"/><path d="M-16.2 9.4q-.45.2-.7-.2-.95-1.6-1.35-3.35l-.15-1.55.2-.4Q-13.25-.5.35-.3q13.1.15 16.85 3.65.4.5.2 1.9-.55 2.95-1.65 3.55l-.4.05Q11.25 7.7.85 7.5q-12.2-.3-17.05 1.9" fill="#440202" transform="translate(18.4 7.85)"/><path d="M.95 6.35q-12.15-.3-17.1 1.95l-1.1-2.7-.1-1.05Q-12.55.6.3.65q12.5.1 16.15 3.45.4.45-.1 1.95-.5 1.4-1.05 1.7Q11.05 6.6.95 6.35" fill="#d80000" transform="translate(18.4 7.85)"/><path d="M2.4 4.5q12.05.85 14.1-.3.3.55-.2 1.95-.5 1.35-1 1.6Q11.05 6.6.95 6.35q-12.15-.3-17.1 1.95l-.95-2.15Q-10.35 3.6 2.4 4.5" fill="#8c1414" transform="translate(18.4 7.85)"/><path d="M.2 1.5q7.15-.05 8.7 1.1.55.4.3 1.4-.2 1.3-.85 1.5l-.15.05h-.1l-7.5-.4-8.2.3-.25.05-.2-.2Q-9.1 4-8.6 3.05l.1-.2Q-7.05 1.5.2 1.5" fill="#440202" transform="translate(18.4 7.85)"/><path d="m.6 4.35-7.85.35-.4-1.1Q-6.4 2.45.25 2.4q6.55 0 7.95 1 .25.2.15.75-.1.5-.4.6L.6 4.35" fill="#fff" transform="translate(18.4 7.85)"/><path d="m-.4 4.4-2.4.05 2.55-2h1.3L-.4 4.4m6.95-1.5-1 1.6-2.15-.1 1.3-1.8 1.85.3" fill="#ccc" transform="translate(18.4 7.85)"/><path d="M-11.5-2.6q1.65-1.8 3.15-2.6l2.4-.9 2.65-.35-2.75 1.15q-2.65 1.45-3.1 3.75 0-1.85.45-3.15-2.15 3.05-1.7 4.8-2.45.8-2.9 1.15-.3-1.4 1.8-3.85m2.3 6.85q-1-.9-1-1.3-2 .1-3.6.85-2.45 1.3-2.9 1.85h-.15l.25-1.3 1.05-.8q1.4-.9 2.8-1.2l4.4-1.05 4.65-.2q-4.45 1.1-5.15 1.55-.4.25-.3.75.05.65-.05.85" fill="#f88" transform="translate(18.4 7.85)"/><path d="m-13.9 13.25 1.25-.1q1.75 10.65.4 10.75-.85.05-1.35-5.3l-.3-5.35M11.75 13h1.6q-1.05 10.65-2.4 10.45-.85-.1-.1-5.3l.9-5.15" fill="#02001a" transform="translate(18.4 7.85)"/></g></defs></svg>

<?xml version="1.0" encoding="UTF-8" standalone="no"?>
<svg xmlns:xlink="http://www.w3.org/1999/xlink" height="92.9px" width="100.7px" xmlns="http://www.w3.org/2000/svg">
  <g transform="matrix(1.0, 0.0, 0.0, 1.0, 38.65, 49.75)">
    <use height="31.75" transform="matrix(1.0, 0.0, 0.0, 1.0, -18.4, -7.85)" width="35.85" xlink:href="#shape0"/>
  </g>
  <defs>
    <g id="shape0" transform="matrix(1.0, 0.0, 0.0, 1.0, 18.4, 7.85)">
      <path d="M-9.5 -6.25 Q-7.1 -7.65 -0.5 -7.85 6.45 -8.0 9.15 -6.3 13.45 -2.45 14.05 2.75 L13.95 3.15 Q13.8 3.35 13.55 3.35 L-14.25 3.2 -14.65 3.05 -14.75 2.6 Q-13.95 -3.35 -9.5 -6.25" fill="#440202" fill-rule="evenodd" stroke="none"/>
      <path d="M-8.85 -5.4 Q-6.65 -6.7 -0.5 -6.85 5.95 -7.05 8.5 -5.5 12.45 -1.85 13.05 3.25 L-13.75 2.7 Q-13.0 -2.6 -8.85 -5.4" fill="#d80000" fill-rule="evenodd" stroke="none"/>
      <path d="M6.05 -1.15 Q9.35 -4.05 6.35 -6.3 L8.5 -5.5 Q12.45 -1.85 13.05 3.25 9.05 3.45 -0.95 3.15 4.55 0.15 6.05 -1.15" fill="#8c1414" fill-rule="evenodd" stroke="none"/>
      <path d="M5.75 -4.65 L7.1 -3.0 Q8.45 -1.0 8.7 1.05 L8.75 1.6 8.2 1.65 -8.35 1.3 -8.95 1.3 -8.85 0.7 Q-8.4 -2.85 -5.55 -4.65 -4.05 -5.55 -0.15 -5.65 4.0 -5.75 5.75 -4.65" fill="#440202" fill-rule="evenodd" stroke="none"/>
      <path d="M5.1 -3.8 L6.25 -2.35 Q7.45 -0.55 7.7 1.4 L-7.85 1.0 Q-7.35 -2.25 -5.0 -3.75 -3.65 -4.55 -0.15 -4.65 3.5 -4.8 5.1 -3.8" fill="#ffffff" fill-rule="evenodd" stroke="none"/>
      <path d="M0.7 -4.65 L2.55 -4.55 Q0.8 -3.95 -0.2 -2.05 -1.1 0.25 -1.85 1.3 L-3.75 1.2 Q-2.1 -0.6 0.7 -4.65" fill="#cccccc" fill-rule="evenodd" stroke="none"/>
      <path d="M5.1 -3.8 L5.2 -3.7 Q4.55 -2.85 4.25 -1.2 L3.7 1.45 0.1 1.35 Q0.4 0.15 1.6 -1.5 L3.5 -4.4 5.1 -3.8" fill="#cccccc" fill-rule="evenodd" stroke="none"/>
      <path d="M14.5 6.75 Q15.0 6.85 15.15 7.25 15.45 8.2 15.05 10.2 14.7 12.05 14.2 12.8 L13.55 13.2 11.1 13.2 Q10.75 13.2 10.65 12.95 L8.6 9.0 -10.2 9.0 -11.35 13.05 Q-11.5 13.4 -11.9 13.4 L-14.85 13.4 -15.35 13.05 -15.95 10.8 Q-16.35 8.6 -15.55 7.5 L-15.4 7.35 Q-13.1 5.65 -0.35 5.7 11.45 5.8 14.5 6.75" fill="#440202" fill-rule="evenodd" stroke="none"/>
      <path d="M0.95 6.1 Q13.75 6.5 14.1 7.4 14.85 9.6 13.3 12.15 L11.4 12.15 9.15 8.1 -11.1 8.1 -12.3 12.35 -14.45 12.35 -14.9 10.45 Q-15.25 8.3 -14.55 7.35 -12.2 5.65 0.95 6.1" fill="#d80000" fill-rule="evenodd" stroke="none"/>
      <path d="M14.1 7.4 Q14.85 9.6 13.3 12.15 L11.4 12.15 9.15 8.1 -11.1 8.1 -12.3 12.35 -13.35 12.35 -13.1 9.5 -13.15 9.45 -14.9 10.5 Q-15.2 8.3 -14.55 7.35 -12.2 5.65 0.95 6.1 13.75 6.5 14.1 7.4" fill="#8c1414" fill-rule="evenodd" stroke="none"/>
      <path d="M-16.2 9.4 Q-16.65 9.6 -16.9 9.2 -17.85 7.6 -18.25 5.85 L-18.4 4.3 -18.2 3.9 Q-13.25 -0.5 0.35 -0.3 13.45 -0.15 17.2 3.35 17.6 3.85 17.4 5.25 16.85 8.2 15.75 8.8 L15.35 8.85 Q11.25 7.7 0.85 7.5 -11.35 7.2 -16.2 9.4" fill="#440202" fill-rule="evenodd" stroke="none"/>
      <path d="M0.95 6.35 Q-11.2 6.05 -16.15 8.3 L-17.25 5.6 -17.35 4.55 Q-12.55 0.6 0.3 0.65 12.8 0.75 16.45 4.1 16.85 4.55 16.35 6.05 15.85 7.45 15.3 7.75 11.05 6.6 0.95 6.35" fill="#d80000" fill-rule="evenodd" stroke="none"/>
      <path d="M2.4 4.5 Q14.45 5.35 16.5 4.2 16.8 4.75 16.3 6.15 15.8 7.5 15.3 7.75 11.05 6.6 0.95 6.35 -11.2 6.05 -16.15 8.3 L-17.1 6.15 Q-10.35 3.6 2.4 4.5" fill="#8c1414" fill-rule="evenodd" stroke="none"/>
      <path d="M0.2 1.5 Q7.35 1.45 8.9 2.6 9.45 3.0 9.2 4.0 9.0 5.3 8.35 5.5 L8.2 5.55 8.1 5.55 0.6 5.15 -7.6 5.45 -7.85 5.5 -8.05 5.3 Q-9.1 4.0 -8.6 3.05 L-8.5 2.85 Q-7.05 1.5 0.2 1.5" fill="#440202" fill-rule="evenodd" stroke="none"/>
      <path d="M0.6 4.35 L-7.25 4.7 -7.65 3.6 Q-6.4 2.45 0.25 2.4 6.8 2.4 8.2 3.4 8.45 3.6 8.35 4.15 8.25 4.65 7.95 4.75 L0.6 4.35" fill="#ffffff" fill-rule="evenodd" stroke="none"/>
      <path d="M-0.4 4.4 L-2.8 4.45 -0.25 2.45 1.05 2.45 -0.4 4.4" fill="#cccccc" fill-rule="evenodd" stroke="none"/>
      <path d="M6.55 2.9 L5.55 4.5 3.4 4.4 4.7 2.6 6.55 2.9" fill="#cccccc" fill-rule="evenodd" stroke="none"/>
      <path d="M-11.5 -2.6 Q-9.85 -4.4 -8.35 -5.2 L-5.95 -6.1 -3.3 -6.45 -6.05 -5.3 Q-8.7 -3.85 -9.15 -1.55 -9.15 -3.4 -8.7 -4.7 -10.85 -1.65 -10.4 0.1 -12.85 0.9 -13.3 1.25 -13.6 -0.15 -11.5 -2.6" fill="#ff8888" fill-rule="evenodd" stroke="none"/>
      <path d="M-9.2 4.25 Q-10.2 3.35 -10.2 2.95 -12.2 3.05 -13.8 3.8 -16.25 5.1 -16.7 5.65 L-16.85 5.65 -16.6 4.35 -15.55 3.55 Q-14.15 2.65 -12.75 2.35 L-8.35 1.3 -3.7 1.1 Q-8.15 2.2 -8.85 2.65 -9.25 2.9 -9.15 3.4 -9.1 4.05 -9.2 4.25" fill="#ff8888" fill-rule="evenodd" stroke="none"/>
      <path d="M-13.9 13.25 L-12.65 13.15 Q-10.9 23.8 -12.25 23.9 -13.1 23.95 -13.6 18.6 L-13.9 13.25" fill="#02001a" fill-rule="evenodd" stroke="none"/>
      <path d="M11.75 13.0 L13.35 13.0 Q12.3 23.65 10.95 23.45 10.1 23.35 10.85 18.15 L11.75 13.0" fill="#02001a" fill-rule="evenodd" stroke="none"/>
    </g>
  </defs>
</svg>
